X:223
T: The Dairymaid
R: reel
L:1/8
S: Jacky Daly
M:4/4
K:D
dB |: AF ~F2 DFBF | AFDE FE ~E2 | AF ~F2 DFAF | ~E2 DE FDDB |
AF ~F2 DFBF | AFDE FE ~E2  | DF ~F2 B2 AF | ~E2 DE FD ~D2 :|
d3 f abag | ~f2 ef dB ~B2 | dcdf abag | faeg fddc |
dfaf gbag | faef dB ~B2 | dfaf gbag | faeg fd ~d2 :|
